src/lib/packages/icons/src/assets/line/user-code.svg

<svg xmlns="http://www.w3.org/2000/svg" width="24" height="24" fill="none"><path fill="currentColor" d="M16.5 22.75a.744.744 0 0 1-.53-.22l-2.5-2.5a.75.75 0 0 1 0-1.061l2.5-2.5a.75.75 0 1 1 1.061 1.061l-1.97 1.97 1.97 1.97a.75.75 0 0 1-.531 1.28Zm3.53-.22 2.5-2.5a.75.75 0 0 0 0-1.061l-2.5-2.5a.75.75 0 1 0-1.061 1.061l1.97 1.97-1.97 1.97a.75.75 0 1 0 1.061 1.06ZM14.259 6.5a4.255 4.255 0 0 0-4.25-4.25 4.255 4.255 0 0 0-4.25 4.25 4.255 4.255 0 0 0 4.25 4.25 4.255 4.255 0 0 0 4.25-4.25Zm-1.5 0a2.752 2.752 0 0 1-2.75 2.75 2.752 2.752 0 0 1-2.75-2.75 2.752 2.752 0 0 1 2.75-2.75 2.752 2.752 0 0 1 2.75 2.75ZM11.75 21a.75.75 0 0 0-.75-.75H6c-1.577 0-2.25-.667-2.25-2.23 0-1.001.307-4.27 4.25-4.27h4c1.159 0 2.099.281 2.791.835a.75.75 0 1 0 .938-1.171c-.966-.773-2.22-1.165-3.729-1.165H8c-4.244 0-5.75 3.108-5.75 5.77 0 2.405 1.332 3.73 3.75 3.73h5a.749.749 0 0 0 .75-.749Z"/></svg>

<svg width="24" height="24" viewBox="0 0 24 24" fill="none" xmlns="http://www.w3.org/2000/svg">
<path d="M16.5 22.75C16.308 22.75 16.116 22.677 15.97 22.53L13.47 20.03C13.177 19.737 13.177 19.262 13.47 18.969L15.97 16.469C16.263 16.176 16.738 16.176 17.031 16.469C17.324 16.762 17.324 17.237 17.031 17.53L15.061 19.5L17.031 21.47C17.324 21.763 17.324 22.238 17.031 22.531C16.884 22.677 16.692 22.75 16.5 22.75ZM20.03 22.53L22.53 20.03C22.823 19.737 22.823 19.262 22.53 18.969L20.03 16.469C19.737 16.176 19.262 16.176 18.969 16.469C18.676 16.762 18.676 17.237 18.969 17.53L20.939 19.5L18.969 21.47C18.676 21.763 18.676 22.238 18.969 22.531C19.115 22.677 19.307 22.751 19.499 22.751C19.691 22.751 19.884 22.677 20.03 22.53ZM14.259 6.5C14.259 4.157 12.353 2.25 10.009 2.25C7.66503 2.25 5.75903 4.157 5.75903 6.5C5.75903 8.843 7.66503 10.75 10.009 10.75C12.353 10.75 14.259 8.843 14.259 6.5ZM12.759 6.5C12.759 8.017 11.526 9.25 10.009 9.25C8.49203 9.25 7.25903 8.017 7.25903 6.5C7.25903 4.983 8.49203 3.75 10.009 3.75C11.526 3.75 12.759 4.983 12.759 6.5ZM11.75 21C11.75 20.586 11.414 20.25 11 20.25H6C4.423 20.25 3.75 19.583 3.75 18.02C3.75 17.019 4.057 13.75 8 13.75H12C13.159 13.75 14.099 14.031 14.791 14.585C15.115 14.844 15.5859 14.793 15.8459 14.468C16.1049 14.144 16.052 13.6729 15.729 13.4139C14.763 12.6409 13.509 12.249 12 12.249H8C3.756 12.249 2.25 15.357 2.25 18.019C2.25 20.424 3.582 21.749 6 21.749H11C11.414 21.75 11.75 21.414 11.75 21Z" fill="currentColor"/>
</svg>
